X: 107
T: Stranger In The Garden
C:Dave Landreth
B: canberra pickers and fiddlers
B: old time tunes update
B: tunes
M:4/4
L:1/8
Q: 1/4=100
K:Adorian
V:1 
"Am"EGAG A2 A2 | c3B cBAA | "G"EGAG G2 G2 |c3B cBAA|
"Am"EGAG A2 A2 | c3B c2 d2 | "G"efgf gfed | BA^GB A2 A2 :|
"Am"efgf gfef | gfe2 aeae |"G"efgf gfef | gfed BAGB |
"Am"efgf gfef |gfef a2 a2 | "G"efgf gfed | BA^GB A2 A2 |
"Am"cdec "G"d2 A2 | "Am"cdec "G"d2 d2 | "Am"efgf afgf | edBA GA A2 | "E"B4 B4 | EG GA "Am"A2 A2 |
% abcbook-tune_id 67a7d9ec7b9bc1c031b2f17d
% abcbook-tune_composer_id 
% abcbook-link-0 https://www.youtube.com/watch?v=ThwbM4u7kxk
% abcbook-link-title-0 Stranger in the Garden
% abcbook-boost 0
% abcbook-difficulty 0
% abcbook-tags old time tunes
% abcbook-tablature 
% abcbook-transpose 
% abcbook-tuning GDAE
% abcbook-lastupdated 1739273598957
% abcbook-src-url 
% abcbook-soundfonts 
% abcbook-repeats 1


